X: 1
T:no name
M:C|
L:1/8
S:J\"orgen Fischer, who got it from Matt Molloy
R:reel
Z:id:hn-reel-729
K:D
~A2FA ~B2AB|d2fe dBBd|ADFA ~B2AB|1 dBAF FEDF:|2 dBAF FED2||
|:a2ab afef|~a2bf afef|1 ~a3b afef|defe dB~B2:|2 a2af b2af|egfe dB~B2||
